X: 1490
T: the Green Jacket   #2
T: an casog glas.
R: reel
O: Cronin
B: O'Neill "Music of Ireland" 1850 #1490
Z: transcribed by John B. Walsh, 8/22/96
M: C|
L: 1/8
K: D
|: D2((3FED) AD ((3FED) | ABcd edcA | D2 ((3FED) A2d2 |1 cAGF FDCE :|2 cAGE (MED) HD2 |] f>d ((3.d.d.d) fddf |
| e>c ((3.c.c.c) efge | f>d ((3.d.d.d) fged | cAGE (MED) D2 || fede fedf | edcd efge | afge f2ed | cAGE EDC"_D.C."E |]
